flaticon/delivery/trolley-2.svg

<svg xmlns="http://www.w3.org/2000/svg" width="32" height="32" viewBox="0 0 24 24">
    <path d="M 22.398438 15.601562 L 22 15.601562 L 22 12 C 22 11.761719 21.839844 11.601562 21.601562 11.601562 L 21.199219 11.601562 L 21.199219 4 C 21.199219 3.761719 21.039062 3.601562 20.800781 3.601562 L 12 3.601562 C 11.761719 3.601562 11.601562 3.761719 11.601562 4 L 11.601562 8.398438 L 9.199219 8.398438 C 8.960938 8.398438 8.800781 8.558594 8.800781 8.800781 L 8.800781 15.601562 L 8 15.601562 L 8 6.800781 C 8 5.039062 6.558594 3.601562 4.800781 3.601562 L 1.601562 3.601562 C 0.71875 3.601562 0 4.320312 0 5.199219 C 0 6.078125 0.71875 6.800781 1.601562 6.800781 L 4.800781 6.800781 L 4.800781 15.601562 C 4.800781 17.359375 6.238281 18.800781 8 18.800781 L 10.398438 18.800781 C 10.398438 19.679688 11.121094 20.398438 12 20.398438 C 12.878906 20.398438 13.601562 19.679688 13.601562 18.800781 L 18.398438 18.800781 C 18.398438 19.679688 19.121094 20.398438 20 20.398438 C 20.878906 20.398438 21.601562 19.679688 21.601562 18.800781 L 22.398438 18.800781 C 23.28125 18.800781 24 18.078125 24 17.199219 C 24 16.320312 23.28125 15.601562 22.398438 15.601562 Z M 14 12.398438 L 15.199219 12.398438 L 15.199219 13.601562 C 15.199219 13.839844 15.359375 14 15.601562 14 L 17.199219 14 C 17.441406 14 17.601562 13.839844 17.601562 13.601562 L 17.601562 12.398438 L 21.199219 12.398438 L 21.199219 15.601562 L 12.398438 15.601562 L 12.398438 12.398438 Z M 16 12.398438 L 16.800781 12.398438 L 16.800781 13.199219 L 16 13.199219 Z M 16.800781 4.398438 L 16.800781 5.199219 L 16 5.199219 L 16 4.398438 Z M 12.398438 4.398438 L 15.199219 4.398438 L 15.199219 5.601562 C 15.199219 5.839844 15.359375 6 15.601562 6 L 17.199219 6 C 17.441406 6 17.601562 5.839844 17.601562 5.601562 L 17.601562 4.398438 L 20.398438 4.398438 L 20.398438 11.601562 L 14.398438 11.601562 L 14.398438 8.800781 C 14.398438 8.558594 14.238281 8.398438 14 8.398438 L 12.398438 8.398438 Z M 12 9.199219 L 12 10 L 11.199219 10 L 11.199219 9.199219 Z M 9.601562 9.199219 L 10.398438 9.199219 L 10.398438 10.398438 C 10.398438 10.640625 10.558594 10.800781 10.800781 10.800781 L 12.398438 10.800781 C 12.640625 10.800781 12.800781 10.640625 12.800781 10.398438 L 12.800781 9.199219 L 13.601562 9.199219 L 13.601562 11.601562 L 12 11.601562 C 11.761719 11.601562 11.601562 11.761719 11.601562 12 L 11.601562 15.601562 L 9.601562 15.601562 Z M 0.800781 5.199219 C 0.800781 4.761719 1.160156 4.398438 1.601562 4.398438 L 4 4.398438 L 4 6 L 1.601562 6 C 1.160156 6 0.800781 5.640625 0.800781 5.199219 Z M 5.601562 15.601562 L 5.601562 6.800781 C 5.601562 6.359375 5.238281 6 4.800781 6 L 4.800781 4.398438 C 6.121094 4.398438 7.199219 5.480469 7.199219 6.800781 L 7.199219 15.601562 C 7.199219 16.039062 7.558594 16.398438 8 16.398438 L 8 18 C 6.679688 18 5.601562 16.921875 5.601562 15.601562 Z M 12 19.601562 C 11.558594 19.601562 11.199219 19.238281 11.199219 18.800781 C 11.199219 18.472656 11.398438 18.1875 11.683594 18.066406 C 11.6875 18.0625 11.691406 18.0625 11.691406 18.0625 C 11.710938 18.054688 11.730469 18.046875 11.75 18.039062 C 11.761719 18.039062 11.773438 18.035156 11.78125 18.03125 C 11.796875 18.027344 11.8125 18.023438 11.828125 18.019531 C 11.839844 18.015625 11.847656 18.015625 11.859375 18.011719 C 11.875 18.011719 11.886719 18.007812 11.902344 18.007812 C 11.910156 18.003906 11.917969 18.003906 11.929688 18.003906 C 11.953125 18 11.976562 18 12 18 C 12.441406 18 12.800781 18.359375 12.800781 18.800781 C 12.800781 19.238281 12.441406 19.601562 12 19.601562 Z M 20 19.601562 C 19.558594 19.601562 19.199219 19.238281 19.199219 18.800781 C 19.199219 18.359375 19.558594 18 20 18 C 20.441406 18 20.800781 18.359375 20.800781 18.800781 C 20.800781 19.238281 20.441406 19.601562 20 19.601562 Z M 22.398438 18 L 21.398438 18 C 21.078125 17.519531 20.640625 17.199219 20.039062 17.199219 C 20.035156 17.199219 20.027344 17.199219 20.023438 17.199219 C 20.015625 17.199219 20.007812 17.199219 20 17.199219 C 19.410156 17.199219 18.894531 17.523438 18.617188 18 L 13.398438 18 C 13.351562 17.929688 13.300781 17.863281 13.246094 17.800781 C 12.972656 17.460938 12.566406 17.234375 12.109375 17.203125 C 12.105469 17.203125 12.105469 17.203125 12.101562 17.203125 C 12.066406 17.203125 12.035156 17.199219 12 17.199219 C 11.96875 17.199219 11.933594 17.203125 11.902344 17.203125 C 11.890625 17.203125 11.875 17.207031 11.859375 17.207031 C 11.847656 17.207031 11.832031 17.210938 11.816406 17.210938 C 11.296875 17.269531 10.851562 17.570312 10.601562 18 L 8.800781 18 L 8.800781 16.398438 L 22.398438 16.398438 C 22.839844 16.398438 23.199219 16.761719 23.199219 17.199219 C 23.199219 17.640625 22.839844 18 22.398438 18 Z M 22.398438 18"/>
</svg>

<svg xmlns="http://www.w3.org/2000/svg" width="32" height="32" viewBox="0 0 24 24">
    <path d="M22.398 15.602H22V12c0-.238-.16-.398-.398-.398h-.403V4c0-.238-.16-.398-.398-.398H12c-.238 0-.398.16-.398.398v4.398H9.199c-.238 0-.398.16-.398.403v6.8H8v-8.8c0-1.762-1.441-3.2-3.2-3.2H1.603C.719 3.602 0 4.322 0 5.2c0 .88.719 1.602 1.602 1.602H4.8v8.8c0 1.758 1.437 3.2 3.199 3.2h2.398c0 .879.723 1.597 1.602 1.597.879 0 1.602-.718 1.602-1.597h4.796c0 .879.723 1.597 1.602 1.597.879 0 1.602-.718 1.602-1.597h.796c.883 0 1.602-.723 1.602-1.602 0-.879-.719-1.597-1.602-1.597zM14 12.398h1.2v1.204c0 .238.16.398.402.398h1.597c.242 0 .403-.16.403-.398v-1.204h3.597v3.204h-8.8v-3.204zm2 0h.8v.801H16zm.8-8V5.2H16v-.8zm-4.402 0H15.2v1.204c0 .238.16.398.403.398h1.597c.242 0 .403-.16.403-.398V4.398h2.796v7.204h-6V8.8c0-.242-.16-.403-.398-.403h-1.602zM12 9.2V10h-.8v-.8zm-2.398 0h.796v1.2c0 .242.16.402.403.402h1.597c.243 0 .403-.16.403-.403V9.2h.8v2.403H12c-.238 0-.398.16-.398.398v3.602h-2zM.8 5.2c0-.437.36-.8.8-.8H4V6H1.602C1.16 6 .8 5.64.8 5.2zm4.8 10.403V6.8c0-.442-.363-.801-.8-.801V4.398a2.407 2.407 0 0 1 2.398 2.403v8.8c0 .438.36.797.801.797V18a2.404 2.404 0 0 1-2.398-2.398zm6.399 4a.799.799 0 1 1-.316-1.535c.004-.005.007-.005.007-.005l.059-.023a.074.074 0 0 0 .031-.008l.047-.011c.012-.004.02-.004.031-.008.016 0 .028-.004.043-.004.008-.004.016-.004.028-.004.023-.004.047-.004.07-.004.441 0 .8.36.8.8 0 .438-.359.802-.8.802zm8 0a.804.804 0 0 1-.8-.801.802.802 0 0 1 1.6 0c0 .437-.359.8-.8.8zM22.398 18h-1c-.32-.48-.757-.8-1.359-.8H20c-.59 0-1.105.323-1.383.8h-5.219a1.917 1.917 0 0 0-.152-.2 1.6 1.6 0 0 0-1.137-.597h-.007c-.036 0-.067-.004-.102-.004-.031 0-.066.004-.098.004-.011 0-.027.004-.043.004-.011 0-.027.004-.043.004-.52.059-.964.36-1.214.789H8.8v-1.602h13.597c.442 0 .801.364.801.801 0 .442-.36.801-.8.801zm0 0"/>
</svg>
